client/public/img/game/normal/buildings/porta_potty_ceiling.svg

<?xml version="1.0" encoding="UTF-8" standalone="no"?>
<svg
   height="386"
   viewBox="0 0 83.017964 102.12916"
   width="313.76868"
   version="1.1"
   id="svg16"
   xmlns="http://www.w3.org/2000/svg"
   xmlns:svg="http://www.w3.org/2000/svg">
  <defs
     id="defs20" />
  <g
     id="g1"
     transform="matrix(0.94570261,0,0,0.94570261,0.02006661,-0.0203862)">
    <path
       d="M 1.3050963,106.68815 V 1.3478617 H 86.436889 V 106.68815 Z M 18.558143,28.306334 c 5.544449,0 10.039108,-4.313078 10.039108,-10.039252 0,-5.726161 -4.494659,-10.0387474 -10.039108,-10.0387474 -5.544459,0 -10.0391382,4.3125864 -10.0391382,10.0387474 0,5.726174 4.4946792,10.039252 10.0391382,10.039252 z"
       fill="#e7e7e7"
       stroke="#c2c2c2"
       stroke-width="2.65261"
       id="path8-6"
       style="mix-blend-mode:normal;fill-rule:nonzero;stroke-linecap:butt;stroke-linejoin:miter;stroke-miterlimit:10;stroke-dasharray:none;stroke-dashoffset:0" />
    <path
       d="m 86.436889,14.7834 v 7.465061 H 27.830431 c 0.49406,-1.225868 0.76682,-2.570725 0.76682,-3.981381 0,-1.222138 -0.20472,-2.394901 -0.58074,-3.48368 z"
       fill="#f4f4f4"
       stroke="#c2c2c2"
       stroke-width="2.65261"
       id="path14"
       style="mix-blend-mode:normal;fill-rule:nonzero;stroke-linecap:butt;stroke-linejoin:miter;stroke-miterlimit:10;stroke-dasharray:none;stroke-dashoffset:0" />
    <path
       d="M 1.3050863,22.248461 V 14.7834 h 7.7946684 c -0.3760099,1.088779 -0.5807499,2.261542 -0.5807499,3.48368 0,1.410656 0.27278,2.755513 0.7668399,3.981381 z"
       fill="#f4f4f4"
       stroke="#c2c2c2"
       stroke-width="2.65261"
       id="path16"
       style="mix-blend-mode:normal;fill-rule:nonzero;stroke-linecap:butt;stroke-linejoin:miter;stroke-miterlimit:10;stroke-dasharray:none;stroke-dashoffset:0" />
    <path
       d="M 1.3050837,93.251363 V 85.7863 H 86.436479 v 7.465063 z"
       fill="#f4f4f4"
       stroke="#c2c2c2"
       stroke-width="2.6526"
       id="path18"
       style="mix-blend-mode:normal;fill-rule:nonzero;stroke-linecap:butt;stroke-linejoin:miter;stroke-miterlimit:10;stroke-dasharray:none;stroke-dashoffset:0" />
    <path
       d="m 1.3050969,57.750532 v -7.46506 H 86.4369 v 7.46506 z"
       fill="#f4f4f4"
       stroke="#c2c2c2"
       stroke-width="2.65261"
       id="path20"
       style="mix-blend-mode:normal;fill-rule:nonzero;stroke-linecap:butt;stroke-linejoin:miter;stroke-miterlimit:10;stroke-dasharray:none;stroke-dashoffset:0" />
  </g>
</svg>

<svg xmlns="http://www.w3.org/2000/svg" width="313.769" height="386" viewBox="0 0 83.018 102.129"><g stroke="#c2c2c2" stroke-width="2.653"><path fill="#e7e7e7" d="M1.305 106.688V1.348h85.132v105.34Zm17.253-78.382c5.545 0 10.04-4.313 10.04-10.039S24.102 8.228 18.557 8.228 8.52 12.541 8.52 18.268c0 5.725 4.495 10.038 10.04 10.038z" style="mix-blend-mode:normal;fill-rule:nonzero;stroke-linecap:butt;stroke-linejoin:miter;stroke-miterlimit:10;stroke-dasharray:none;stroke-dashoffset:0" transform="matrix(.9457 0 0 .9457 .02 -.02)"/><path fill="#f4f4f4" d="M86.437 14.783v7.465H27.83c.494-1.225.767-2.57.767-3.98 0-1.223-.204-2.396-.58-3.485zM1.305 22.248v-7.465H9.1a10.7 10.7 0 0 0-.581 3.484c0 1.41.273 2.756.767 3.981zM1.305 93.251v-7.465h85.131v7.465zM1.305 57.75v-7.465h85.132v7.466z" style="mix-blend-mode:normal;fill-rule:nonzero;stroke-linecap:butt;stroke-linejoin:miter;stroke-miterlimit:10;stroke-dasharray:none;stroke-dashoffset:0" transform="matrix(.9457 0 0 .9457 .02 -.02)"/></g></svg>
